icons/grid.svg

<svg xmlns="http://www.w3.org/2000/svg" width="96" height="96"><path d="M12 4h24c2.1 0 4.2.8 5.7 2.3C43.2 7.8 44 9.9 44 12v24c0 2.1-.8 4.2-2.3 5.7-1.5 1.5-3.6 2.3-5.7 2.3H12c-2.1 0-4.2-.8-5.7-2.3C4.8 40.2 4 38.1 4 36V12c0-2.1.8-4.2 2.3-5.7C7.8 4.8 9.9 4 12 4zm0 8h24v24H12V12zm0 40h24c2.1 0 4.2.8 5.7 2.3 1.5 1.5 2.3 3.6 2.3 5.7v24c0 2.1-.8 4.2-2.3 5.7-1.5 1.5-3.6 2.3-5.7 2.3H12c-2.1 0-4.2-.8-5.7-2.3C4.8 88.2 4 86.1 4 84V60c0-2.1.8-4.2 2.3-5.7C7.8 52.8 9.9 52 12 52zm0 8h24v24H12V60zM60 4h24c2.1 0 4.2.8 5.7 2.3C91.2 7.8 92 9.9 92 12v24c0 2.1-.8 4.2-2.3 5.7-1.5 1.5-3.6 2.3-5.7 2.3H60c-2.1 0-4.2-.8-5.7-2.3-1.5-1.5-2.3-3.6-2.3-5.7V12c0-2.1.8-4.2 2.3-5.7C55.8 4.8 57.9 4 60 4zm0 8h24v24H60V12zm0 40h24c2.1 0 4.2.8 5.7 2.3 1.5 1.5 2.3 3.6 2.3 5.7v24c0 2.1-.8 4.2-2.3 5.7-1.5 1.5-3.6 2.3-5.7 2.3H60c-2.1 0-4.2-.8-5.7-2.3-1.5-1.5-2.3-3.6-2.3-5.7V60c0-2.1.8-4.2 2.3-5.7 1.5-1.5 3.6-2.3 5.7-2.3zm0 8h24v24H60V60z" fill-rule="evenodd" fill="#454545"/></svg>

<?xml version="1.0" standalone="no"?><!-- Generator: Gravit.io --><svg xmlns="http://www.w3.org/2000/svg" xmlns:xlink="http://www.w3.org/1999/xlink" width="96" height="96"><path d=" M 12 4 L 36 4 C 38.1 4 40.2 4.8 41.7 6.3 C 43.2 7.8 44 9.9 44 12 L 44 36 C 44 38.1 43.2 40.2 41.7 41.7 C 40.2 43.2 38.1 44 36 44 L 12 44 C 9.9 44 7.8 43.2 6.3 41.7 C 4.8 40.2 4 38.1 4 36 L 4 12 C 4 9.9 4.8 7.8 6.3 6.3 C 7.8 4.8 9.9 4 12 4 Z  M 12 12 L 36 12 L 36 36 L 12 36 L 12 12 Z  M 12 52 L 36 52 C 38.1 52 40.2 52.8 41.7 54.3 C 43.2 55.8 44 57.9 44 60 L 44 84 C 44 86.1 43.2 88.2 41.7 89.7 C 40.2 91.2 38.1 92 36 92 L 12 92 C 9.9 92 7.8 91.2 6.3 89.7 C 4.8 88.2 4 86.1 4 84 L 4 60 C 4 57.9 4.8 55.8 6.3 54.3 C 7.8 52.8 9.9 52 12 52 Z  M 12 60 L 36 60 L 36 84 L 12 84 L 12 60 Z  M 60 4 L 84 4 C 86.1 4 88.2 4.8 89.7 6.3 C 91.2 7.8 92 9.9 92 12 L 92 36 C 92 38.1 91.2 40.2 89.7 41.7 C 88.2 43.2 86.1 44 84 44 L 60 44 C 57.9 44 55.8 43.2 54.3 41.7 C 52.8 40.2 52 38.1 52 36 L 52 12 C 52 9.9 52.8 7.8 54.3 6.3 C 55.8 4.8 57.9 4 60 4 Z  M 60 12 L 84 12 L 84 36 L 60 36 L 60 12 Z  M 60 52 L 84 52 C 86.1 52 88.2 52.8 89.7 54.3 C 91.2 55.8 92 57.9 92 60 L 92 84 C 92 86.1 91.2 88.2 89.7 89.7 C 88.2 91.2 86.1 92 84 92 L 60 92 C 57.9 92 55.8 91.2 54.3 89.7 C 52.8 88.2 52 86.1 52 84 L 52 60 C 52 57.9 52.8 55.8 54.3 54.3 C 55.8 52.8 57.9 52 60 52 Z  M 60 60 L 84 60 L 84 84 L 60 84 L 60 60 Z " fill-rule="evenodd" fill="#454545" stroke="none"/><mask id="_mask_PJLTCtrgcEAsQvWNKBzXaZVtZ9bWf5h9"><path d=" M 12 4 L 36 4 C 38.1 4 40.2 4.8 41.7 6.3 C 43.2 7.8 44 9.9 44 12 L 44 36 C 44 38.1 43.2 40.2 41.7 41.7 C 40.2 43.2 38.1 44 36 44 L 12 44 C 9.9 44 7.8 43.2 6.3 41.7 C 4.8 40.2 4 38.1 4 36 L 4 12 C 4 9.9 4.8 7.8 6.3 6.3 C 7.8 4.8 9.9 4 12 4 Z  M 12 12 L 36 12 L 36 36 L 12 36 L 12 12 Z  M 12 52 L 36 52 C 38.1 52 40.2 52.8 41.7 54.3 C 43.2 55.8 44 57.9 44 60 L 44 84 C 44 86.1 43.2 88.2 41.7 89.7 C 40.2 91.2 38.1 92 36 92 L 12 92 C 9.9 92 7.8 91.2 6.3 89.7 C 4.8 88.2 4 86.1 4 84 L 4 60 C 4 57.9 4.8 55.8 6.3 54.3 C 7.8 52.8 9.9 52 12 52 Z  M 12 60 L 36 60 L 36 84 L 12 84 L 12 60 Z  M 60 4 L 84 4 C 86.1 4 88.2 4.8 89.7 6.3 C 91.2 7.8 92 9.9 92 12 L 92 36 C 92 38.1 91.2 40.2 89.7 41.7 C 88.2 43.2 86.1 44 84 44 L 60 44 C 57.9 44 55.8 43.2 54.3 41.7 C 52.8 40.2 52 38.1 52 36 L 52 12 C 52 9.9 52.8 7.8 54.3 6.3 C 55.8 4.8 57.9 4 60 4 Z  M 60 12 L 84 12 L 84 36 L 60 36 L 60 12 Z  M 60 52 L 84 52 C 86.1 52 88.2 52.8 89.7 54.3 C 91.2 55.8 92 57.9 92 60 L 92 84 C 92 86.1 91.2 88.2 89.7 89.7 C 88.2 91.2 86.1 92 84 92 L 60 92 C 57.9 92 55.8 91.2 54.3 89.7 C 52.8 88.2 52 86.1 52 84 L 52 60 C 52 57.9 52.8 55.8 54.3 54.3 C 55.8 52.8 57.9 52 60 52 Z  M 60 60 L 84 60 L 84 84 L 60 84 L 60 60 Z " fill-rule="evenodd" fill="white" stroke="none"/></mask><path d=" M 12 4 L 36 4 C 38.1 4 40.2 4.8 41.7 6.3 C 43.2 7.8 44 9.9 44 12 L 44 36 C 44 38.1 43.2 40.2 41.7 41.7 C 40.2 43.2 38.1 44 36 44 L 12 44 C 9.9 44 7.8 43.2 6.3 41.7 C 4.8 40.2 4 38.1 4 36 L 4 12 C 4 9.9 4.8 7.8 6.3 6.3 C 7.8 4.8 9.9 4 12 4 Z  M 12 12 L 36 12 L 36 36 L 12 36 L 12 12 Z  M 12 52 L 36 52 C 38.1 52 40.2 52.8 41.7 54.3 C 43.2 55.8 44 57.9 44 60 L 44 84 C 44 86.1 43.2 88.2 41.7 89.7 C 40.2 91.2 38.1 92 36 92 L 12 92 C 9.9 92 7.8 91.2 6.3 89.7 C 4.8 88.2 4 86.1 4 84 L 4 60 C 4 57.9 4.8 55.8 6.3 54.3 C 7.8 52.8 9.9 52 12 52 Z  M 12 60 L 36 60 L 36 84 L 12 84 L 12 60 Z  M 60 4 L 84 4 C 86.1 4 88.2 4.8 89.7 6.3 C 91.2 7.8 92 9.9 92 12 L 92 36 C 92 38.1 91.2 40.2 89.7 41.7 C 88.2 43.2 86.1 44 84 44 L 60 44 C 57.9 44 55.8 43.2 54.3 41.7 C 52.8 40.2 52 38.1 52 36 L 52 12 C 52 9.9 52.8 7.8 54.3 6.3 C 55.8 4.8 57.9 4 60 4 Z  M 60 12 L 84 12 L 84 36 L 60 36 L 60 12 Z  M 60 52 L 84 52 C 86.1 52 88.2 52.8 89.7 54.3 C 91.2 55.8 92 57.9 92 60 L 92 84 C 92 86.1 91.2 88.2 89.7 89.7 C 88.2 91.2 86.1 92 84 92 L 60 92 C 57.9 92 55.8 91.2 54.3 89.7 C 52.8 88.2 52 86.1 52 84 L 52 60 C 52 57.9 52.8 55.8 54.3 54.3 C 55.8 52.8 57.9 52 60 52 Z  M 60 60 L 84 60 L 84 84 L 60 84 L 60 60 Z " fill-rule="evenodd" fill="none" stroke="none" stroke-width="16" mask="url(#_mask_PJLTCtrgcEAsQvWNKBzXaZVtZ9bWf5h9)"/></svg>
